; generated by PrusaSlicer 2.9.2 on 2025-06-12 at 23:46:09 UTC


;
;

;
;
; 

; external perimeters extrusion width = 0.45mm
; perimeters extrusion width = 0.45mm
; infill extrusion width = 0.45mm
; solid infill extrusion width = 0.45mm
; top infill extrusion width = 0.40mm

;TYPE:Custom
M140 S0
M104 S0
M106 P1 S255
M106 P2 S0
START_PRINT EXTRUDER_TEMP=230 BED_TEMP=50
G21 ; set units to millimeters
G90 ; use absolute coordinates
M83 ; use relative distances for extrusion
; Filament gcode
M107
;LAYER_CHANGE
;Z:0.35
;HEIGHT:0.35
G1 E-.8 F1800
G1 Z.45 F7800
G1 X127.091 Y132.268
G1 Z.35
G1 E.8 F1800
;TYPE:Perimeter
;WIDTH:0.45
G1 X127.24 Y132.75 E.02752
G1 X127.35 Y133.81 E.05813
G1 X127.251 Y134.87 E.05808
G1 X126.947 Y135.89 E.05806
G1 X126.45 Y136.832 E.0581
G1 X125.779 Y137.658 E.05805
G1 X124.959 Y138.338 E.05811
G1 X124.023 Y138.845 E.05807
G1 X123.005 Y139.159 E.05811
G1 X121.946 Y139.269 E.05808
G1 X120.805 Y139.152 E.06257
G1 X119.892 Y138.874 E.05206
G1 X118.924 Y138.369 E.05956
G1 X118.097 Y137.697 E.05813
G1 X117.418 Y136.878 E.05803
G1 X116.911 Y135.941 E.05812
G1 X116.597 Y134.924 E.05806
G1 X116.487 Y133.865 E.05808
G1 X116.586 Y132.805 E.05808
G1 X116.89 Y131.784 E.05811
G1 X117.387 Y130.842 E.0581
G1 X118.058 Y130.016 E.05805
G1 X118.878 Y129.336 E.05811
G1 X119.815 Y128.83 E.05809
G1 X120.832 Y128.515 E.05808
G1 X121.891 Y128.406 E.05807
G1 X122.924 Y128.501 E.05659
G1 X123.972 Y128.808 E.05957
G1 X124.913 Y129.306 E.05808
G1 X125.74 Y129.977 E.0581
G1 X126.419 Y130.797 E.05808
G1 X126.926 Y131.733 E.05807
G1 X127.074 Y132.211 E.0273
G1 X126.736 Y132.376 F7800
;TYPE:External perimeter
G1 F1800
G1 X126.874 Y132.833 E.02604
G1 X126.976 Y133.846 E.05554
G1 X126.881 Y134.806 E.05263
G1 X126.587 Y135.781 E.05555
G1 X126.133 Y136.631 E.05257
G1 X125.488 Y137.42 E.05559
G1 X124.743 Y138.031 E.05256
G1 X123.845 Y138.513 E.0556
G1 X122.923 Y138.793 E.05256
G1 X121.909 Y138.894 E.05559
G1 X120.914 Y138.793 E.05456
G1 X120.001 Y138.516 E.05205
G1 X119.101 Y138.037 E.05562
G1 X118.356 Y137.426 E.05256
G1 X117.709 Y136.639 E.05558
G1 X117.254 Y135.789 E.05259
G1 X116.957 Y134.815 E.05555
G1 X116.862 Y133.855 E.05263
G1 X116.96 Y132.842 E.05552
G1 X117.24 Y131.919 E.05262
G1 X117.719 Y131.02 E.05557
G1 X118.33 Y130.275 E.05256
G1 X119.117 Y129.627 E.05561
G1 X119.967 Y129.173 E.05257
G1 X120.941 Y128.875 E.05556
G1 X121.9 Y128.781 E.05257
G1 X122.887 Y128.874 E.05408
G1 X123.862 Y129.168 E.05555
G1 X124.713 Y129.623 E.05264
G1 X125.501 Y130.268 E.05555
G1 X126.113 Y131.013 E.0526
G1 X126.594 Y131.91 E.05552
G1 X126.718 Y132.318 E.02326
G1 X126.834 Y132.701 F7800
G1 E-.8 F1800
G1 Z.45 F7800
G1 X118.283 Y126.973
G1 Z.35
G1 E.8 F1800
;TYPE:Perimeter
G1 X118.308 Y126.959 E.00156
G1 X119.159 Y126.581 E.0508
G1 X119.719 Y126.386 E.03235
G1 X120.627 Y126.182 E.05077
G1 X121.215 Y126.1 E.03239
G1 X122.146 Y126.077 E.0508
G1 X122.674 Y126.108 E.02885
G1 X123.655 Y126.27 E.05424
G1 X124.229 Y126.42 E.03236
G1 X125.098 Y126.755 E.05081
G1 X125.632 Y127.013 E.03235
G1 X126.419 Y127.511 E.05081
G1 X126.892 Y127.869 E.03236
G1 X127.566 Y128.51 E.05074
G1 X127.96 Y128.954 E.03238
G1 X128.497 Y129.715 E.05081
G1 X128.797 Y130.226 E.03232
G1 X129.175 Y131.077 E.0508
G1 X129.369 Y131.638 E.03238
G1 X129.574 Y132.546 E.05078
G1 X129.655 Y133.133 E.03233
G1 X129.687 Y133.894 E.04155
G1 X129.644 Y134.656 E.04163
G1 X129.485 Y135.574 E.05082
G1 X129.336 Y136.148 E.03235
G1 X129.001 Y137.017 E.05081
G1 X128.742 Y137.55 E.03233
G1 X128.245 Y138.337 E.05078
G1 X127.887 Y138.81 E.03236
G1 X127.245 Y139.485 E.05082
G1 X126.802 Y139.879 E.03234
G1 X126.041 Y140.416 E.05081
G1 X125.53 Y140.716 E.03232
G1 X124.679 Y141.093 E.05077
G1 X124.118 Y141.288 E.0324
G1 X123.21 Y141.492 E.05077
G1 X122.622 Y141.574 E.03239
G1 X121.692 Y141.597 E.05075
G1 X121.099 Y141.562 E.03241
G1 X120.182 Y141.404 E.05076
G1 X119.608 Y141.254 E.03236
G1 X118.739 Y140.92 E.05079
G1 X118.205 Y140.661 E.03238
G1 X117.419 Y140.163 E.05076
G1 X116.946 Y139.805 E.03236
G1 X116.271 Y139.164 E.05078
G1 X115.877 Y138.721 E.03234
G1 X115.34 Y137.96 E.05081
G1 X115.04 Y137.448 E.03237
G1 X114.662 Y136.597 E.0508
G1 X114.468 Y136.037 E.03233
G1 X114.263 Y135.128 E.05083
G1 X114.182 Y134.541 E.03233
G1 X114.158 Y133.61 E.0508
G1 X114.193 Y133.018 E.03235
G1 X114.352 Y132.101 E.05077
G1 X114.501 Y131.527 E.03235
G1 X114.836 Y130.658 E.05081
G1 X115.095 Y130.124 E.03238
G1 X115.592 Y129.337 E.05078
G1 X115.95 Y128.864 E.03236
G1 X116.592 Y128.189 E.05082
G1 X117.035 Y127.795 E.03234
G1 X117.796 Y127.259 E.05078
G1 X118.232 Y127.003 E.02758
G1 X118.088 Y126.648 F7800
;TYPE:External perimeter
G1 F1800
G1 X118.801 Y126.311 E.04302
G1 X119.554 Y126.041 E.04364
G1 X120.329 Y125.847 E.04358
G1 X121.12 Y125.73 E.04362
G1 X121.919 Y125.69 E.04364
G1 X122.656 Y125.727 E.04025
G1 X123.254 Y125.811 E.03294
G1 X123.746 Y125.907 E.02735
G1 X124.355 Y126.067 E.03435
G1 X125.258 Y126.416 E.05281
G1 X125.824 Y126.692 E.03435
G1 X126.642 Y127.21 E.05282
G1 X127.143 Y127.591 E.03434
G1 X127.844 Y128.259 E.05282
G1 X128.262 Y128.73 E.03435
G1 X128.819 Y129.522 E.05282
G1 X129.136 Y130.066 E.03435
G1 X129.528 Y130.951 E.0528
G1 X129.733 Y131.546 E.03433
G1 X129.945 Y132.491 E.05283
G1 X130.03 Y133.115 E.03435
G1 X130.061 Y133.913 E.04356
G1 X130.026 Y134.636 E.03949
G1 X129.909 Y135.426 E.04357
G1 X129.714 Y136.202 E.04365
G1 X129.445 Y136.955 E.04362
G1 X129.103 Y137.677 E.04358
G1 X128.692 Y138.363 E.04362
G1 X128.216 Y139.005 E.0436
G1 X127.679 Y139.598 E.04364
G1 X127.087 Y140.135 E.0436
G1 X126.445 Y140.611 E.0436
G1 X125.759 Y141.022 E.04362
G1 X125.036 Y141.364 E.04363
G1 X124.283 Y141.633 E.04362
G1 X123.508 Y141.827 E.04358
G1 X122.717 Y141.945 E.04363
G1 X121.919 Y141.984 E.04358
G1 X121.12 Y141.945 E.04364
G1 X120.329 Y141.827 E.04363
G1 X119.554 Y141.633 E.04358
G1 X118.801 Y141.364 E.04362
G1 X118.078 Y141.022 E.04363
G1 X117.393 Y140.611 E.04358
G1 X116.75 Y140.135 E.04364
G1 X116.158 Y139.598 E.0436
G1 X115.621 Y139.005 E.04364
G1 X115.145 Y138.363 E.0436
G1 X114.734 Y137.677 E.04362
G1 X114.392 Y136.955 E.04358
G1 X114.123 Y136.202 E.04362
G1 X113.928 Y135.426 E.04365
G1 X113.811 Y134.636 E.04357
G1 X113.772 Y133.837 E.04364
G1 X113.811 Y133.039 E.04358
G1 X113.929 Y132.248 E.04363
G1 X114.123 Y131.472 E.04363
G1 X114.392 Y130.72 E.04357
G1 X114.734 Y129.997 E.04363
G1 X115.145 Y129.311 E.04362
G1 X115.621 Y128.669 E.0436
G1 X116.158 Y128.077 E.0436
G1 X116.75 Y127.54 E.0436
G1 X117.393 Y127.063 E.04367
G1 X118.036 Y126.678 E.04088
G1 X118.396 Y126.503 F7800
G1 E-.8 F1800
G1 Z.45 F7800
G1 X126.082 Y127.414
G1 Z.35
G1 E.8 F1800
;TYPE:Solid infill
;WIDTH:0.458983
G1 X127.274 Y128.606 E.09416
G1 X127.708 Y129.086 E.03615
G1 X128.146 Y129.676 E.04105
G1 X128.524 Y130.306 E.04104
G1 X128.607 Y130.483 E.01092
G1 X125.273 Y127.148 E.26341
G1 X124.785 Y126.917 E.03016
G1 X124.34 Y126.758 E.0264
G1 X128.997 Y131.416 E.36792
G1 X129.086 Y131.663 E.01467
G1 X129.214 Y132.175 E.02948
G1 X123.58 Y126.541 E.44506
G1 X123.383 Y126.492 E.01134
G1 X122.923 Y126.427 E.02595
G1 X129.333 Y132.837 E.50636
G1 X129.372 Y133.103 E.01502
G1 X129.389 Y133.436 E.01863
G1 X122.32 Y126.367 E.55842
G1 X121.966 Y126.35 E.0198
G1 X121.768 Y126.358 E.01107
G1 X123.909 Y128.499 E.16913
G1 X123.129 Y128.262 E.04554
G1 X121.248 Y126.381 E.14859
G1 X120.769 Y126.445 E.02699
G1 X122.508 Y128.184 E.13737
G1 X121.908 Y128.127 E.03367
G1 X120.31 Y126.528 E.12627
G1 X119.876 Y126.637 E.025
G1 X121.41 Y128.172 E.12122
G1 X120.917 Y128.222 E.02768
G1 X119.465 Y126.77 E.1147
G1 X119.066 Y126.913 E.02368
G1 X120.483 Y128.33 E.11194
G1 X120.067 Y128.457 E.0243
G1 X118.696 Y127.086 E.1083
G1 X118.332 Y127.265 E.02266
G1 X119.663 Y128.595 E.1051
G1 X119.309 Y128.784 E.02242
G1 X117.993 Y127.469 E.10392
G1 X117.662 Y127.68 E.02193
G1 X118.955 Y128.974 E.10218
G1 X118.744 Y129.086 E.01334
G1 X118.624 Y129.185 E.00869
G1 X117.35 Y127.912 E.1006
G1 X117.05 Y128.154 E.02153
G1 X118.325 Y129.43 E.10076
G1 X118.027 Y129.674 E.02151
G1 X116.765 Y128.412 E.09969
G1 X116.493 Y128.683 E.02145
G1 X117.756 Y129.946 E.09977
G1 X117.511 Y130.244 E.02155
G1 X116.235 Y128.968 E.1008
G1 X115.993 Y129.269 E.02157
G1 X117.266 Y130.542 E.10056
G1 X117.168 Y130.663 E.0087
G1 X117.055 Y130.874 E.01337
G1 X115.762 Y129.581 E.10214
G1 X115.55 Y129.911 E.02191
G1 X116.866 Y131.227 E.10396
G1 X116.677 Y131.581 E.02242
G1 X115.346 Y130.251 E.1051
G1 X115.313 Y130.306 E.00358
G1 X115.167 Y130.615 E.01909
G1 X116.538 Y131.985 E.10826
G1 X116.412 Y132.402 E.02433
G1 X114.994 Y130.984 E.11202
G1 X114.851 Y131.384 E.02373
G1 X116.303 Y132.836 E.1147
G1 X116.255 Y133.331 E.02778
G1 X114.718 Y131.794 E.12142
G1 X114.61 Y132.228 E.02498
G1 X116.206 Y133.825 E.12612
G1 X116.263 Y134.424 E.03361
G1 X114.526 Y132.688 E.13718
G1 X114.462 Y133.166 E.02694
G1 X116.344 Y135.048 E.14867
G1 X116.58 Y135.828 E.04552
G1 X114.275 Y133.523 E.18209
G1 E-.8
G1 Z.45 F7800
G1 X126.944 Y131.533
G1 Z.35
G1 E.8 F1800
G1 X129.401 Y133.991 E.19413
G1 X129.375 Y134.508 E.02892
G1 X127.493 Y132.626 E.14867
G1 X127.523 Y132.722 E.00562
G1 X127.575 Y133.25 E.02964
G1 X129.311 Y134.986 E.13714
G1 X129.227 Y135.446 E.02612
G1 X127.631 Y133.85 E.12608
G1 X127.583 Y134.344 E.02772
G1 X129.119 Y135.88 E.12134
G1 X128.986 Y136.29 E.02408
G1 X127.534 Y134.838 E.1147
G1 X127.523 Y134.952 E.0064
G1 X127.425 Y135.272 E.01869
G1 X128.843 Y136.69 E.11202
G1 X128.67 Y137.06 E.02282
G1 X127.299 Y135.689 E.1083
G1 X127.197 Y136.024 E.01956
G1 X127.16 Y136.093 E.00437
G1 X128.491 Y137.423 E.1051
G1 X128.287 Y137.763 E.02215
G1 X126.971 Y136.447 E.10396
G1 X126.782 Y136.801 E.02242
G1 X128.075 Y138.094 E.10214
G1 X127.844 Y138.405 E.02164
G1 X126.571 Y137.132 E.10056
G1 X126.326 Y137.43 E.02155
G1 X127.602 Y138.706 E.1008
G1 X127.344 Y138.991 E.02147
G1 X126.081 Y137.728 E.09977
G1 X125.959 Y137.877 E.01076
G1 X125.81 Y138 E.01079
G1 X127.072 Y139.262 E.09969
G1 X126.787 Y139.52 E.02147
G1 X125.512 Y138.245 E.10072
G1 X125.213 Y138.489 E.02156
G1 X126.487 Y139.763 E.10064
G1 X126.175 Y139.994 E.02168
G1 X124.882 Y138.701 E.10214
G1 X124.528 Y138.89 E.02242
G1 X125.844 Y140.206 E.10396
G1 X125.505 Y140.409 E.02207
G1 X124.175 Y139.079 E.10506
G1 X124.105 Y139.116 E.00442
G1 X123.77 Y139.218 E.01956
G1 X125.141 Y140.588 E.10826
G1 X124.771 Y140.762 E.02284
G1 X123.354 Y139.344 E.11198
G1 X123.033 Y139.441 E.01873
G1 X122.919 Y139.452 E.0064
G1 X124.372 Y140.905 E.11478
G1 X123.961 Y141.037 E.02411
G1 X122.425 Y139.501 E.12134
G1 X121.931 Y139.55 E.02773
G1 X123.527 Y141.146 E.12608
G1 X123.068 Y141.229 E.02605
G1 X121.331 Y139.493 E.13718
G1 X120.804 Y139.441 E.02958
G1 X120.707 Y139.412 E.00566
G1 X122.589 Y141.294 E.14867
G1 X122.072 Y141.319 E.02891
G1 X119.615 Y138.862 E.19409
G1 E-.8
G1 Z.45 F7800
G1 X121.694 Y141.485
G1 Z.35
G1 E.8 F1800
G1 X114.449 Y134.239 E.57236
G1 X114.465 Y134.571 E.01857
G1 X114.504 Y134.838 E.01507
G1 X120.918 Y141.251 E.50664
G1 X120.457 Y141.183 E.02603
G1 X120.257 Y141.133 E.01152
G1 X114.623 Y135.499 E.44506
G1 X114.751 Y136.011 E.02948
G1 X114.84 Y136.259 E.01472
G1 X119.497 Y140.916 E.36788
G1 X119.052 Y140.757 E.0264
G1 X118.564 Y140.526 E.03016
G1 X115.23 Y137.192 E.26337
G1 X115.313 Y137.368 E.01087
G1 X115.691 Y137.998 E.04104
G1 X116.129 Y138.589 E.04109
G1 X116.565 Y139.069 E.03622
G1 X117.755 Y140.26 E.09404
G1 E-.8
G1 Z.45 F7800
G1 X127.091 Y156.105
G1 Z.35
G1 E.8 F1800
;TYPE:Perimeter
;WIDTH:0.45
G1 X127.24 Y156.588 E.02757
G1 X127.35 Y157.647 E.05808
G1 X127.251 Y158.707 E.05808
G1 X126.947 Y159.727 E.05806
G1 X126.45 Y160.669 E.0581
G1 X125.779 Y161.495 E.05805
G1 X124.959 Y162.175 E.05811
G1 X124.023 Y162.682 E.05807
G1 X123.005 Y162.996 E.05811
G1 X121.946 Y163.106 E.05808
G1 X120.805 Y162.989 E.06257
G1 X119.892 Y162.712 E.05205
G1 X118.924 Y162.206 E.05958
G1 X118.097 Y161.534 E.05813
G1 X117.418 Y160.715 E.05803
G1 X116.911 Y159.778 E.05812
G1 X116.597 Y158.761 E.05806
G1 X116.487 Y157.702 E.05808
G1 X116.586 Y156.642 E.05808
G1 X116.89 Y155.621 E.05811
G1 X117.387 Y154.68 E.05805
G1 X118.058 Y153.853 E.0581
G1 X118.878 Y153.173 E.05811
G1 X119.815 Y152.667 E.05809
G1 X120.832 Y152.352 E.05808
G1 X121.891 Y152.243 E.05807
G1 X122.924 Y152.338 E.05659
G1 X123.972 Y152.646 E.05959
G1 X124.913 Y153.143 E.05805
G1 X125.74 Y153.814 E.0581
G1 X126.419 Y154.634 E.05808
G1 X126.926 Y155.57 E.05807
G1 X127.074 Y156.048 E.0273
G1 X126.736 Y156.213 F7800
;TYPE:External perimeter
G1 F1800
G1 X126.874 Y156.67 E.02604
G1 X126.976 Y157.683 E.05554
G1 X126.881 Y158.643 E.05263
G1 X126.587 Y159.618 E.05555
G1 X126.133 Y160.468 E.05257
G1 X125.488 Y161.257 E.05559
G1 X124.743 Y161.868 E.05256
G1 X123.845 Y162.35 E.0556
G1 X122.923 Y162.63 E.05256
G1 X121.909 Y162.731 E.05559
G1 X120.914 Y162.63 E.05456
G1 X120.001 Y162.353 E.05205
G1 X119.101 Y161.874 E.05562
G1 X118.356 Y161.263 E.05256
G1 X117.709 Y160.476 E.05558
G1 X117.254 Y159.626 E.05259
G1 X116.957 Y158.652 E.05555
G1 X116.862 Y157.693 E.05257
G1 X116.96 Y156.679 E.05557
G1 X117.24 Y155.756 E.05262
G1 X117.719 Y154.857 E.05557
G1 X118.33 Y154.112 E.05256
G1 X119.117 Y153.464 E.05561
G1 X119.967 Y153.01 E.05257
G1 X120.941 Y152.713 E.05555
G1 X121.9 Y152.618 E.05257
G1 X122.887 Y152.711 E.05408
G1 X123.862 Y153.006 E.05557
G1 X124.713 Y153.46 E.05262
G1 X125.501 Y154.105 E.05555
G1 X126.113 Y154.85 E.0526
G1 X126.594 Y155.748 E.05557
G1 X126.718 Y156.156 E.02326
G1 X126.834 Y156.538 F7800
G1 E-.8 F1800
G1 Z.45 F7800
G1 X118.283 Y150.81
G1 Z.35
G1 E.8 F1800
;TYPE:Perimeter
G1 X118.308 Y150.796 E.00156
G1 X119.159 Y150.418 E.0508
G1 X119.719 Y150.224 E.03233
G1 X120.627 Y150.019 E.05078
G1 X121.215 Y149.938 E.03238
G1 X122.146 Y149.914 E.0508
G1 X122.674 Y149.945 E.02885
G1 X123.655 Y150.108 E.05425
G1 X124.229 Y150.257 E.03235
G1 X125.098 Y150.592 E.05081
G1 X125.632 Y150.85 E.03235
G1 X126.419 Y151.348 E.05081
G1 X126.892 Y151.706 E.03236
G1 X127.566 Y152.348 E.05078
G1 X127.96 Y152.791 E.03234
G1 X128.497 Y153.552 E.05081
G1 X128.797 Y154.063 E.03232
G1 X129.175 Y154.914 E.0508
G1 X129.369 Y155.475 E.03238
G1 X129.574 Y156.383 E.05078
G1 X129.655 Y156.97 E.03233
G1 X129.687 Y157.732 E.0416
G1 X129.644 Y158.493 E.04158
G1 X129.485 Y159.411 E.05082
G1 X129.336 Y159.985 E.03235
G1 X129.001 Y160.854 E.05081
G1 X128.742 Y161.387 E.03233
G1 X128.245 Y162.174 E.05078
G1 X127.887 Y162.647 E.03236
G1 X127.245 Y163.322 E.05082
G1 X126.802 Y163.716 E.03234
G1 X126.041 Y164.253 E.05081
G1 X125.53 Y164.553 E.03232
G1 X124.679 Y164.931 E.0508
G1 X124.118 Y165.125 E.03238
G1 X123.21 Y165.33 E.05078
G1 X122.622 Y165.411 E.03238
G1 X121.692 Y165.434 E.05075
G1 X121.099 Y165.4 E.0324
G1 X120.182 Y165.241 E.05077
G1 X119.608 Y165.091 E.03236
G1 X118.739 Y164.757 E.05079
G1 X118.205 Y164.498 E.03238
G1 X117.419 Y164 E.05076
G1 X116.946 Y163.643 E.03233
G1 X116.271 Y163.001 E.05082
G1 X115.877 Y162.558 E.03234
G1 X115.34 Y161.797 E.05081
G1 X115.04 Y161.285 E.03237
G1 X114.662 Y160.434 E.0508
G1 X114.468 Y159.874 E.03233
G1 X114.263 Y158.966 E.05078
G1 X114.182 Y158.378 E.03238
G1 X114.158 Y157.447 E.0508
G1 X114.193 Y156.855 E.03235
G1 X114.352 Y155.938 E.05077
G1 X114.501 Y155.364 E.03235
G1 X114.836 Y154.495 E.05081
G1 X115.095 Y153.961 E.03238
G1 X115.592 Y153.174 E.05078
G1 X115.95 Y152.701 E.03236
G1 X116.592 Y152.027 E.05078
G1 X117.035 Y151.632 E.03238
G1 X117.796 Y151.096 E.05078
G1 X118.232 Y150.84 E.02758
G1 X118.088 Y150.485 F7800
;TYPE:External perimeter
G1 F1800
G1 X118.801 Y150.148 E.04302
G1 X119.554 Y149.878 E.04364
G1 X120.329 Y149.684 E.04358
G1 X121.12 Y149.567 E.04362
G1 X121.919 Y149.528 E.04364
G1 X122.656 Y149.564 E.04025
G1 X123.254 Y149.648 E.03294
G1 X123.746 Y149.744 E.02735
G1 X124.355 Y149.904 E.03435
G1 X125.258 Y150.253 E.05281
G1 X125.824 Y150.529 E.03435
G1 X126.642 Y151.047 E.05282
G1 X127.143 Y151.428 E.03434
G1 X127.844 Y152.096 E.05282
G1 X128.262 Y152.568 E.03439
G1 X128.819 Y153.359 E.05277
G1 X129.136 Y153.903 E.03435
G1 X129.528 Y154.788 E.0528
G1 X129.733 Y155.384 E.03438
G1 X129.945 Y156.328 E.05278
G1 X130.03 Y156.952 E.03435
G1 X130.061 Y157.75 E.04356
