; generated by PrusaSlicer 2.9.2 on 2025-06-14 at 00:08:11 UTC


;
;

;
;
; 

; external perimeters extrusion width = 0.45mm
; perimeters extrusion width = 0.45mm
; infill extrusion width = 0.45mm
; solid infill extrusion width = 0.45mm
; top infill extrusion width = 0.40mm

; external perimeters extrusion width = 0.45mm
; perimeters extrusion width = 0.45mm
; infill extrusion width = 0.45mm
; solid infill extrusion width = 0.45mm
; top infill extrusion width = 0.40mm

;TYPE:Custom
M140 S0
M104 S0
M106 P1 S255
M106 P2 S0
START_PRINT EXTRUDER_TEMP=230 BED_TEMP=50
G21 ; set units to millimeters
G90 ; use absolute coordinates
M83 ; use relative distances for extrusion
; Filament gcode
M107
;LAYER_CHANGE
;Z:0.35
;HEIGHT:0.35
G1 E-.8 F1800
G1 Z.45 F7800
G1 X127.486 Y92.65
G1 Z.35
G1 E.8 F1800
;TYPE:Perimeter
;WIDTH:0.45
G1 X126.947 Y92.115 E.04143
G1 X126.426 Y91.484 E.04464
G1 X125.97 Y90.806 E.04457
G1 X125.582 Y90.086 E.04462
G1 X125.266 Y89.332 E.0446
G1 X125.027 Y88.551 E.04455
G1 X124.864 Y87.75 E.04459
G1 X124.782 Y86.936 E.04463
G1 X124.779 Y86.119 E.04457
G1 X124.856 Y85.305 E.0446
G1 X125.013 Y84.503 E.04458
G1 X125.248 Y83.72 E.0446
G1 X125.558 Y82.963 E.04462
G1 X125.941 Y82.241 E.04458
G1 X126.409 Y81.538 E.04607
G1 X126.91 Y80.926 E.04315
G1 X127.486 Y80.346 E.04459
G1 X128.116 Y79.826 E.04456
G1 X128.794 Y79.369 E.0446
G1 X129.514 Y78.982 E.04459
G1 X130.268 Y78.666 E.0446
G1 X131.049 Y78.426 E.04457
G1 X131.851 Y78.264 E.04463
G1 X132.712 Y78.181 E.04719
G1 X133.481 Y78.179 E.04195
G1 X134.295 Y78.256 E.0446
G1 X135.097 Y78.413 E.04458
G1 X135.88 Y78.648 E.0446
G1 X136.637 Y78.958 E.04462
G1 X137.359 Y79.341 E.04458
G1 X138.04 Y79.793 E.04459
G1 X138.674 Y80.309 E.04459
G1 X139.254 Y80.885 E.04459
G1 X139.774 Y81.516 E.0446
G1 X140.231 Y82.194 E.0446
G1 X140.618 Y82.914 E.04459
G1 X140.934 Y83.668 E.0446
G1 X141.174 Y84.449 E.04457
G1 X141.336 Y85.25 E.04458
G1 X141.419 Y86.064 E.04463
G1 X141.421 Y86.881 E.04457
G1 X141.344 Y87.695 E.0446
G1 X141.187 Y88.497 E.04458
G1 X140.952 Y89.28 E.0446
G1 X140.642 Y90.037 E.04462
G1 X140.259 Y90.759 E.04458
G1 X139.807 Y91.44 E.04459
G1 X139.291 Y92.074 E.04459
G1 X138.715 Y92.654 E.04459
G1 X138.084 Y93.174 E.0446
G1 X137.406 Y93.631 E.0446
G1 X136.687 Y94.018 E.04454
G1 X135.932 Y94.334 E.04465
G1 X135.151 Y94.574 E.04457
G1 X134.35 Y94.736 E.04458
G1 X133.536 Y94.819 E.04463
G1 X132.719 Y94.821 E.04457
G1 X131.905 Y94.744 E.0446
G1 X131.103 Y94.587 E.04458
G1 X130.32 Y94.352 E.0446
G1 X129.564 Y94.042 E.04457
G1 X128.841 Y93.659 E.04463
G1 X128.16 Y93.207 E.04459
G1 X127.529 Y92.693 E.0444
G1 X127.75 Y92.387 F7800
;TYPE:External perimeter
G1 F1800
G1 X127.212 Y91.849 E.04151
G1 X126.716 Y91.246 E.04259
G1 X126.281 Y90.598 E.04258
G1 X125.912 Y89.91 E.04259
G1 X125.613 Y89.189 E.04258
G1 X125.385 Y88.442 E.04261
G1 X125.232 Y87.676 E.04261
G1 X125.155 Y86.9 E.04254
G1 X125.154 Y86.119 E.0426
G1 X125.229 Y85.342 E.04258
G1 X125.381 Y84.576 E.0426
G1 X125.607 Y83.829 E.04257
G1 X125.905 Y83.107 E.04261
G1 X126.272 Y82.418 E.04259
G1 X126.71 Y81.761 E.04307
G1 X127.199 Y81.164 E.0421
G1 X127.751 Y80.612 E.04259
G1 X128.354 Y80.116 E.04259
G1 X129.002 Y79.681 E.04258
G1 X129.69 Y79.312 E.04259
G1 X130.411 Y79.013 E.04258
G1 X131.158 Y78.785 E.04261
G1 X131.924 Y78.632 E.04261
G1 X132.747 Y78.554 E.0451
G1 X133.481 Y78.554 E.04004
G1 X134.258 Y78.629 E.04258
G1 X135.024 Y78.781 E.0426
G1 X135.772 Y79.006 E.04261
G1 X136.493 Y79.304 E.04256
G1 X137.182 Y79.672 E.04261
G1 X137.832 Y80.105 E.04261
G1 X138.436 Y80.599 E.04257
G1 X138.989 Y81.151 E.04262
G1 X139.485 Y81.754 E.04259
G1 X139.919 Y82.402 E.04255
G1 X140.288 Y83.09 E.04259
G1 X140.587 Y83.811 E.04258
G1 X140.815 Y84.558 E.04261
G1 X140.968 Y85.324 E.04261
G1 X141.046 Y86.1 E.04255
G1 X141.047 Y86.881 E.0426
G1 X140.971 Y87.658 E.04259
G1 X140.819 Y88.424 E.0426
G1 X140.594 Y89.171 E.04256
G1 X140.296 Y89.893 E.04261
G1 X139.929 Y90.582 E.04259
G1 X139.496 Y91.232 E.04261
G1 X139.001 Y91.836 E.0426
G1 X138.45 Y92.388 E.04255
G1 X137.847 Y92.884 E.04259
G1 X137.198 Y93.319 E.04262
G1 X136.51 Y93.688 E.04259
G1 X135.789 Y93.987 E.04258
G1 X135.042 Y94.215 E.04261
G1 X134.277 Y94.368 E.04256
G1 X133.5 Y94.445 E.04259
G1 X132.719 Y94.446 E.0426
G1 X131.942 Y94.371 E.04258
G1 X131.176 Y94.219 E.0426
G1 X130.429 Y93.994 E.04256
G1 X129.707 Y93.696 E.04261
G1 X129.018 Y93.328 E.04261
G1 X128.368 Y92.895 E.04261
G1 X127.795 Y92.426 E.04039
G1 X127.51 Y92.146 F7800
G1 E-.8 F1800
G1 Z.45 F7800
G1 X127.27 Y92.385
G1 X127.53 Y92.645
G1 X128.16 Y93.162
G1 X128.836 Y93.614
G1 X129.554 Y93.998
G1 X130.306 Y94.309
G1 X131.085 Y94.545
G1 X131.883 Y94.704
G1 X132.693 Y94.784
G1 X133.507 Y94.784
G1 X134.317 Y94.704
G1 X135.115 Y94.545
G1 X135.894 Y94.309
G1 X136.646 Y93.997
G1 X136.941 Y93.84
G1 X142.232 Y94.821
G1 X142.194 Y94.783
G1 Z.35
G1 E.8 F1800
;TYPE:Perimeter
G1 X142.069 Y94.93 E.01053
G1 X141.2 Y95.769 E.06589
G1 X140.252 Y96.518 E.06591
G1 X139.236 Y97.171 E.06588
G1 X138.161 Y97.721 E.06587
G1 X137.036 Y98.163 E.06594
G1 X135.874 Y98.492 E.06588
G1 X134.685 Y98.707 E.06591
G1 X133.481 Y98.803 E.06589
G1 X132.274 Y98.781 E.06585
G1 X131.074 Y98.641 E.06591
G1 X129.893 Y98.384 E.06593
G1 X128.744 Y98.013 E.06587
G1 X127.637 Y97.53 E.06589
G1 X126.582 Y96.942 E.06589
G1 X125.59 Y96.252 E.06592
G1 X124.67 Y95.469 E.0659
G1 X123.832 Y94.6 E.06586
G1 X123.082 Y93.652 E.06594
G1 X122.429 Y92.636 E.06588
G1 X121.879 Y91.56 E.06592
G1 X121.437 Y90.436 E.06589
G1 X121.108 Y89.274 E.06588
G1 X120.894 Y88.085 E.0659
G1 X120.797 Y86.881 E.06589
G1 X120.819 Y85.673 E.06591
G1 X120.959 Y84.474 E.06585
G1 X121.216 Y83.293 E.06593
G1 X121.588 Y82.144 E.06588
G1 X122.07 Y81.037 E.06586
G1 X122.659 Y79.982 E.06591
G1 X123.348 Y78.99 E.06589
G1 X124.131 Y78.07 E.0659
G1 X125 Y77.231 E.06589
G1 X125.948 Y76.482 E.06591
G1 X126.964 Y75.829 E.06588
G1 X128.04 Y75.279 E.06592
G1 X129.164 Y74.837 E.06589
G1 X130.326 Y74.508 E.06588
G1 X131.529 Y74.292 E.06667
G1 X132.766 Y74.197 E.06768
G1 X133.927 Y74.219 E.06335
G1 X135.126 Y74.359 E.06585
G1 X136.307 Y74.616 E.06593
G1 X137.456 Y74.987 E.06587
G1 X138.564 Y75.47 E.06594
G1 X139.618 Y76.058 E.06584
G1 X140.611 Y76.748 E.06596
G1 X141.53 Y77.531 E.06586
G1 X142.369 Y78.4 E.06589
G1 X143.118 Y79.348 E.06591
G1 X143.771 Y80.364 E.06588
G1 X144.321 Y81.44 E.06592
G1 X144.763 Y82.564 E.06589
G1 X145.093 Y83.726 E.0659
G1 X145.307 Y84.915 E.0659
G1 X145.403 Y85.993 E.05904
G1 X145.381 Y87.327 E.07278
G1 X145.241 Y88.526 E.06585
G1 X144.984 Y89.707 E.06593
G1 X144.613 Y90.856 E.06587
G1 X144.13 Y91.963 E.06589
G1 X143.542 Y93.018 E.06589
G1 X142.852 Y94.01 E.06592
G1 X142.233 Y94.738 E.05213
G1 X142.483 Y95.021 F7800
;TYPE:External perimeter
G1 F1800
G1 X142.334 Y95.195 E.0125
G1 X141.438 Y96.058 E.06786
G1 X140.461 Y96.83 E.06793
G1 X139.413 Y97.501 E.06788
G1 X138.304 Y98.067 E.06792
G1 X137.145 Y98.522 E.06792
G1 X135.947 Y98.86 E.0679
G1 X134.722 Y99.08 E.06789
G1 X133.481 Y99.178 E.06791
G1 X132.237 Y99.154 E.06787
G1 X131.001 Y99.009 E.06789
G1 X129.785 Y98.743 E.0679
G1 X128.601 Y98.359 E.0679
G1 X127.46 Y97.861 E.06791
G1 X126.374 Y97.253 E.0679
G1 X125.352 Y96.542 E.06792
G1 X124.405 Y95.734 E.06791
G1 X123.542 Y94.838 E.06786
G1 X122.77 Y93.861 E.06793
G1 X122.099 Y92.813 E.06788
G1 X121.533 Y91.704 E.06792
G1 X121.079 Y90.545 E.0679
G1 X120.74 Y89.347 E.06792
G1 X120.52 Y88.122 E.06789
G1 X120.422 Y86.881 E.06791
G1 X120.446 Y85.637 E.06787
G1 X120.591 Y84.401 E.06789
G1 X120.857 Y83.185 E.0679
G1 X121.241 Y82 E.06795
G1 X121.739 Y80.86 E.06786
G1 X122.347 Y79.773 E.06794
G1 X123.058 Y78.752 E.06787
G1 X123.866 Y77.805 E.06791
G1 X124.763 Y76.942 E.0679
G1 X125.74 Y76.17 E.06793
G1 X126.788 Y75.499 E.06788
G1 X127.896 Y74.933 E.06787
G1 X129.055 Y74.478 E.06792
G1 X130.253 Y74.14 E.0679
G1 X131.492 Y73.919 E.06866
G1 X132.767 Y73.822 E.06975
G1 X133.963 Y73.846 E.06526
G1 X135.2 Y73.991 E.06794
G1 X136.416 Y74.257 E.0679
G1 X137.6 Y74.641 E.0679
G1 X138.74 Y75.139 E.06786
G1 X139.827 Y75.747 E.06794
G1 X140.848 Y76.458 E.06787
G1 X141.795 Y77.266 E.06791
G1 X142.659 Y78.162 E.0679
G1 X143.43 Y79.139 E.06789
G1 X144.101 Y80.187 E.06788
G1 X144.667 Y81.296 E.06792
G1 X145.122 Y82.455 E.06792
G1 X145.46 Y83.653 E.0679
G1 X145.68 Y84.878 E.06789
G1 X145.778 Y85.993 E.06106
G1 X145.755 Y87.363 E.07475
G1 X145.609 Y88.6 E.06795
G1 X145.343 Y89.815 E.06785
G1 X144.959 Y90.999 E.0679
G1 X144.461 Y92.14 E.06791
G1 X143.853 Y93.227 E.06794
G1 X143.142 Y94.248 E.06787
G1 X142.522 Y94.975 E.05212
G1 X142.252 Y95.27 F7800
G1 E-.8 F1800
G1 Z.45 F7800
G1 X143.051 Y79.45
G1 Z.35
G1 E.8 F1800
;TYPE:Solid infill
;WIDTH:0.450787
G1 X141.18 Y77.579 E.14465
G1 X140.27 Y76.832 E.06436
G1 X139.197 Y76.127 E.07018
G1 X143.473 Y80.403 E.33057
G1 X143.981 Y81.354 E.05894
G1 X144.044 Y81.505 E.00894
G1 X138.095 Y75.556 E.45991
G1 X137.188 Y75.181 E.05365
G1 X144.419 Y82.412 E.55902
G1 X144.656 Y83.18 E.04394
G1 X136.42 Y74.944 E.63672
G1 X136.025 Y74.824 E.02257
G1 X135.706 Y74.761 E.01778
G1 X144.839 Y83.895 E.7061
G1 X144.971 Y84.558 E.03695
G1 X135.042 Y74.629 E.7676
G1 X134.433 Y74.551 E.03356
G1 X145.049 Y85.167 E.82071
G1 X145.107 Y85.756 E.03235
G1 X133.844 Y74.493 E.87073
G1 X133.299 Y74.479 E.0298
G1 X145.122 Y86.303 E.91406
G1 X145.122 Y86.834 E.02903
G1 X140.631 Y82.343 E.3472
G1 X140.487 Y82.073 E.01673
G1 X140.017 Y81.37 E.04623
G1 X139.481 Y80.717 E.04618
G1 X138.883 Y80.119 E.04623
G1 X138.23 Y79.583 E.04618
G1 X137.528 Y79.113 E.04618
G1 X137.257 Y78.969 E.01678
G1 X132.767 Y74.478 E.34716
G1 X132.266 Y74.509 E.02744
G1 X136.253 Y78.496 E.30823
G1 X136.001 Y78.392 E.0149
G1 X135.45 Y78.224 E.03149
G1 X131.779 Y74.553 E.2838
G1 X131.296 Y74.601 E.02653
G1 X134.753 Y78.059 E.2673
G1 X134.364 Y77.981 E.02169
G1 X134.121 Y77.958 E.01334
G1 X130.853 Y74.689 E.25268
G1 X130.41 Y74.778 E.0247
G1 X133.534 Y77.902 E.24151
G1 X132.999 Y77.899 E.02925
G1 X129.983 Y74.883 E.23316
G1 X129.576 Y75.006 E.02324
G1 X132.489 Y77.92 E.22524
G1 X132.004 Y77.966 E.02663
G1 X129.168 Y75.13 E.21925
G1 X128.783 Y75.276 E.02251
G1 X131.546 Y78.039 E.2136
G1 X131.103 Y78.127 E.02469
G1 X128.407 Y75.431 E.20843
G1 X128.031 Y75.587 E.02225
G1 X130.688 Y78.243 E.20537
G1 X130.28 Y78.367 E.02331
G1 X127.679 Y75.766 E.20108
G1 X127.333 Y75.951 E.02145
G1 X129.898 Y78.516 E.1983
G1 X129.522 Y78.672 E.02225
G1 X126.987 Y76.136 E.19602
G1 X126.912 Y76.176 E.00465
G1 X126.662 Y76.343 E.01644
G1 X129.168 Y78.849 E.19374
G1 X128.822 Y79.034 E.02145
G1 X126.344 Y76.556 E.19157
G1 X126.025 Y76.769 E.02097
G1 X128.491 Y79.235 E.19064
G1 X128.173 Y79.447 E.02089
G1 X125.725 Y77 E.18921
G1 X125.434 Y77.24 E.02062
G1 X127.864 Y79.67 E.18786
G1 X127.572 Y79.909 E.02063
G1 X125.142 Y77.479 E.18786
G1 X124.865 Y77.734 E.02058
G1 X127.284 Y80.152 E.18697
G1 X127.018 Y80.418 E.02056
G1 X124.599 Y77.999 E.18701
G1 X124.334 Y78.265 E.02053
G1 X126.752 Y80.683 E.18693
G1 X126.51 Y80.972 E.02061
G1 X124.079 Y78.542 E.1879
G1 X123.84 Y78.833 E.02059
G1 X126.27 Y81.264 E.1879
G1 X126.048 Y81.573 E.0208
G1 X123.6 Y79.125 E.18925
G1 X123.369 Y79.425 E.0207
G1 X125.835 Y81.891 E.19064
G1 X125.634 Y82.222 E.02117
G1 X123.156 Y79.744 E.19157
G1 X122.943 Y80.062 E.02092
G1 X125.449 Y82.568 E.19374
G1 X125.272 Y82.922 E.02164
G1 X122.736 Y80.386 E.19606
G1 X122.551 Y80.733 E.0215
G1 X125.116 Y83.298 E.1983
G1 X124.967 Y83.68 E.02241
G1 X122.366 Y81.079 E.20108
G1 X122.187 Y81.431 E.02159
G1 X124.843 Y84.087 E.20533
G1 X124.727 Y84.503 E.02361
G1 X122.032 Y81.807 E.20839
G1 X121.876 Y82.183 E.02225
G1 X124.639 Y84.946 E.2136
G1 X124.565 Y85.403 E.02531
G1 X121.73 Y82.568 E.21917
G1 X121.606 Y82.976 E.02331
G1 X124.517 Y85.887 E.22505
G1 X124.499 Y86.399 E.02801
G1 X121.483 Y83.383 E.23316
G1 X121.424 Y83.575 E.01098
G1 X121.378 Y83.81 E.01309
G1 X124.499 Y86.931 E.24128
G1 X124.558 Y87.521 E.03241
G1 X121.29 Y84.253 E.25265
G1 X121.201 Y84.696 E.0247
G1 X124.659 Y88.153 E.2673
G1 X124.746 Y88.593 E.02452
G1 X124.824 Y88.85 E.01468
G1 X121.15 Y85.176 E.28403
G1 X121.103 Y85.66 E.02658
G1 X125.408 Y89.965 E.33282
G1 E-.8
G1 Z.45 F7800
G1 X125.545 Y89.907
G1 X125.603 Y90.046
G1 X125.986 Y90.764
G1 X126.439 Y91.441
G1 X126.955 Y92.07
G1 X127.53 Y92.645
G1 X128.16 Y93.162
G1 X128.836 Y93.614
G1 X129.554 Y93.998
G1 X130.306 Y94.309
G1 X131.085 Y94.545
G1 X131.883 Y94.704
G1 X132.693 Y94.784
G1 X133.507 Y94.784
G1 X134.317 Y94.704
G1 X135.115 Y94.545
G1 X135.894 Y94.309
G1 X136.646 Y93.997
G1 X137.364 Y93.614
G1 X138.041 Y93.162
G1 X138.67 Y92.645
G1 X139.245 Y92.07
G1 X139.762 Y91.441
G1 X140.214 Y90.764
G1 X140.598 Y90.046
G1 X140.909 Y89.294
G1 X141.145 Y88.515
G1 X141.304 Y87.717
G1 X141.384 Y86.907
G1 X141.384 Y86.093
G1 X141.304 Y85.283
G1 X141.145 Y84.485
G1 X140.909 Y83.706
G1 X140.733 Y83.281
G1 X140.655 Y83.093
G1 X140.793 Y83.036
G1 Z.35
G1 E.8 F1800
G1 X145.098 Y87.34 E.33278
G1 X145.05 Y87.824 E.02659
G1 X141.376 Y84.15 E.28403
G1 X141.454 Y84.407 E.01468
G1 X141.541 Y84.847 E.02452
G1 X144.999 Y88.304 E.2673
G1 X144.911 Y88.747 E.02469
G1 X141.643 Y85.48 E.25261
G1 X141.701 Y86.069 E.03235
G1 X144.823 Y89.191 E.24136
G1 X144.776 Y89.425 E.01305
G1 X144.718 Y89.617 E.01096
G1 X141.702 Y86.601 E.23316
G1 X141.683 Y87.113 E.02801
G1 X144.594 Y90.025 E.22509
G1 X144.47 Y90.432 E.02326
G1 X141.635 Y87.597 E.21917
G1 X141.561 Y88.054 E.02531
G1 X144.324 Y90.818 E.21364
G1 X144.169 Y91.193 E.02218
G1 X141.473 Y88.497 E.20843
G1 X141.357 Y88.913 E.02361
G1 X144.013 Y91.569 E.20533
G1 X143.834 Y91.921 E.02159
G1 X141.233 Y89.32 E.20108
G1 X141.084 Y89.702 E.02241
G1 X143.649 Y92.267 E.1983
G1 X143.464 Y92.614 E.0215
G1 X140.928 Y90.078 E.19606
G1 X140.751 Y90.432 E.02164
G1 X143.257 Y92.938 E.19374
G1 X143.044 Y93.257 E.02097
G1 X140.566 Y90.779 E.19157
G1 X140.365 Y91.109 E.02112
G1 X142.832 Y93.575 E.19068
G1 X142.6 Y93.875 E.02073
G1 X140.153 Y91.427 E.18921
G1 X139.93 Y91.736 E.02083
G1 X142.361 Y94.167 E.18794
G1 X142.121 Y94.458 E.02062
G1 X139.691 Y92.028 E.18786
G1 X139.448 Y92.317 E.02064
G1 X141.867 Y94.735 E.18697
G1 X141.601 Y95.001 E.02056
G1 X139.182 Y92.582 E.18701
G1 X138.917 Y92.848 E.02053
G1 X141.335 Y95.267 E.18697
G1 X141.058 Y95.521 E.02054
G1 X138.628 Y93.091 E.18786
G1 X138.336 Y93.33 E.02063
G1 X140.767 Y95.76 E.1879
G1 X140.475 Y96 E.02066
G1 X138.028 Y93.553 E.18918
G1 X137.709 Y93.765 E.02094
G1 X140.175 Y96.231 E.19064
G1 X139.857 Y96.444 E.02092
G1 X137.379 Y93.966 E.19157
G1 X137.032 Y94.151 E.0215
G1 X139.538 Y96.657 E.19374
G1 X139.288 Y96.824 E.01644
G1 X139.214 Y96.864 E.0046
G1 X136.678 Y94.328 E.19606
G1 X136.302 Y94.484 E.02225
G1 X138.867 Y97.049 E.1983
G1 X138.521 Y97.234 E.02145
G1 X135.92 Y94.633 E.20108
G1 X135.513 Y94.757 E.02326
G1 X138.169 Y97.413 E.20533
G1 X137.793 Y97.569 E.02225
G1 X135.097 Y94.873 E.20843
G1 X134.654 Y94.961 E.02469
G1 X137.418 Y97.724 E.21364
G1 X137.032 Y97.87 E.02256
G1 X134.197 Y95.035 E.21917
G1 X133.714 Y95.083 E.02653
G1 X136.625 Y97.994 E.22505
G1 X136.217 Y98.117 E.0233
G1 X133.201 Y95.102 E.23313
G1 X132.669 Y95.101 E.02908
G1 X135.791 Y98.222 E.24132
G1 X135.347 Y98.311 E.02475
G1 X132.08 Y95.043 E.25261
G1 X131.837 Y95.019 E.01335
G1 X131.447 Y94.941 E.02174
G1 X134.904 Y98.399 E.2673
G1 X134.424 Y98.45 E.02639
G1 X130.75 Y94.776 E.28403
G1 X130.199 Y94.608 E.03149
G1 X129.947 Y94.504 E.0149
G1 X133.941 Y98.497 E.30873
G1 X133.434 Y98.522 E.02775
G1 X128.943 Y94.031 E.3472
G1 X128.673 Y93.887 E.01673
G1 X127.97 Y93.417 E.04623
G1 X127.317 Y92.881 E.04618
G1 X126.719 Y92.283 E.04623
G1 X126.183 Y91.63 E.04618
G1 X125.714 Y90.927 E.0462
G1 X125.569 Y90.657 E.01675
G1 X121.078 Y86.166 E.3472
G1 X121.078 Y86.698 E.02908
G1 X132.903 Y98.522 E.91414
G1 X132.356 Y98.507 E.02991
G1 X121.093 Y87.244 E.87073
G1 X121.151 Y87.833 E.03235
G1 X131.767 Y98.449 E.82071
G1 X131.158 Y98.371 E.03356
G1 X121.229 Y88.442 E.7676
G1 X121.361 Y89.106 E.03701
G1 X130.495 Y98.239 E.7061
G1 X130.176 Y98.176 E.01778
G1 X129.78 Y98.056 E.02262
G1 X121.544 Y89.82 E.63672
G1 X121.781 Y90.588 E.04394
G1 X129.012 Y97.819 E.55902
G1 X128.105 Y97.444 E.05365
G1 X122.157 Y91.495 E.45987
